app/images/dist/star.svg

<svg width="19" height="19" viewBox="0 0 19 19" fill="none" xmlns="http://www.w3.org/2000/svg">
<path d="M18.8297 7.01158C18.7448 6.92321 18.6387 6.87903 18.5325 6.85694L12.6308 5.90693L9.95599 0.317395C9.8923 0.184837 9.78616 0.096462 9.65878 0.0522759C9.53141 0.00808985 9.3828 0.00809793 9.25543 0.074377C9.14928 0.118563 9.06437 0.20693 9.02191 0.317395L6.34705 5.90693L0.445374 6.85694C0.169396 6.90113 -0.0428941 7.18833 -0.000436012 7.47554C0.020793 7.58601 0.0632511 7.69647 0.148167 7.78484L4.39398 12.1814L3.41744 18.3674C3.37498 18.6767 3.56604 18.9639 3.84202 19.0081C3.94817 19.0302 4.07554 19.0081 4.18169 18.9418L9.48895 16.0697L14.7962 18.9418C14.8811 18.986 15.0085 19.0081 15.1146 19.0081C15.3906 18.9639 15.5817 18.743 15.5817 18.4558C15.5817 18.4337 15.5817 18.4116 15.5817 18.3895V18.3674L14.6052 12.1814L18.851 7.78484C19.042 7.56391 19.042 7.21042 18.8297 7.01158ZM13.6711 11.6069C13.5437 11.7395 13.5012 11.9162 13.5225 12.093L14.3716 17.4837L9.7437 14.9651C9.5951 14.8767 9.40403 14.8767 9.25543 14.9651L4.6275 17.4837L5.47666 12.093C5.49789 11.9162 5.45543 11.7395 5.32806 11.6069L1.6342 7.76275L6.77163 6.9453C6.94146 6.92321 7.09007 6.81275 7.15375 6.6581L9.48895 1.77554L11.8241 6.6581C11.9091 6.81275 12.0364 6.92321 12.2063 6.9453L17.3437 7.76275L13.6711 11.6069Z" fill="#222222"/>
</svg>

<svg width="19" height="19" fill="none" xmlns="http://www.w3.org/2000/svg"><path d="M18.83 7.012a.558.558 0 00-.297-.155l-5.902-.95L9.956.317a.508.508 0 00-.297-.265.514.514 0 00-.404.022.43.43 0 00-.233.243l-2.675 5.59-5.902.95A.559.559 0 000 7.476c.02.11.063.22.148.309l4.246 4.396-.977 6.186c-.042.31.149.597.425.641.106.022.234 0 .34-.066l5.307-2.872 5.307 2.872a.75.75 0 00.319.066.543.543 0 00.467-.552v-.089l-.977-6.186 4.246-4.396c.191-.221.191-.575-.021-.773zm-5.159 4.595a.584.584 0 00-.148.486l.849 5.39-4.628-2.518a.483.483 0 00-.489 0l-4.628 2.519.85-5.391a.585.585 0 00-.149-.486L1.634 7.763l5.138-.818a.48.48 0 00.382-.287l2.335-4.882 2.335 4.882c.085.155.212.265.382.287l5.138.818-3.673 3.844z" fill="#222"/></svg>
